lg/aws-amplify.svg

<svg viewBox="0 0 256 191" version="1.1" xmlns="http://www.w3.org/2000/svg" preserveAspectRatio="xMidYMid" height="1em" width="1em">
  <defs>
    <linearGradient x1="100%" y1="22.1718317%" x2="0%" y2="77.8281683%" id="a">
      <stop stop-color="#FF9900" offset="0%"/>
      <stop stop-color="#FFC300" offset="100%"/>
    </linearGradient>
  </defs>
  <g>
    <path d="M55.7091852,158.47619 L127.815882,158.47619 L146.285714,190.984127 L145.765368,190.984127 L0,190.984127 L51.3642878,101.977675 L72.8892597,64.7056839 L91.3696717,96.728228 L55.7091852,158.47619 Z M82.6014712,47.8501573 L100.345402,17.1043291 L200.765899,190.983604 L165.203074,190.983604 L82.6014712,47.8501573 Z M110.221481,0 L145.736961,0 L256,190.984127 L220.439804,190.984127 L110.221481,0 Z" fill="url(#a)"/>
  </g>
</svg>

<svg viewBox="0 0 256 191" xmlns="http://www.w3.org/2000/svg" preserveAspectRatio="xMidYMid" height="1em" width="1em">
  <defs>
    <linearGradient x1="100%" y1="22.172%" x2="0%" y2="77.828%" id="a">
      <stop stop-color="#F90" offset="0%"/>
      <stop stop-color="#FFC300" offset="100%"/>
    </linearGradient>
  </defs>
  <path d="M55.71 158.476h72.106l18.47 32.508H0l51.364-89.006L72.89 64.706l18.48 32.022-35.66 61.748ZM82.6 47.85l17.744-30.746 100.42 173.88h-35.562L82.601 47.85ZM110.221 0h35.516L256 190.984h-35.56L110.22 0Z" fill="url(#a)"/>
</svg>
